packages/ffe-icons/icons/open/400/sm/tools_installation_kit.svg

<svg xmlns="http://www.w3.org/2000/svg" height="20" viewBox="0 -960 960 960" width="20"><path d="M336-192q-120 0-204-84T48-480q0-120 84-204t204-84h288q120 0 204 84t84 204q0 120-84 204t-204 84H336Zm0-72h288q90 0 153-63t63-153q0-90-63-153t-153-63H336q-90 0-153 63t-63 153q0 90 63 153t153 63Zm144.212-144Q510-408 531-429.212q21-21.213 21-51Q552-510 530.788-531q-21.213-21-51-21Q450-552 429-530.788q-21 21.213-21 51Q408-450 429.212-429q21.213 21 51 21Zm-36.3-192h71.825Q531-600 541.5-610.289q10.5-10.29 10.5-25.5Q552-651 541.675-661.5 531.35-672 516.088-672h-71.825Q429-672 418.5-661.711q-10.5 10.29-10.5 25.5Q408-621 418.325-610.5 428.65-600 443.912-600Zm0 312h71.825Q531-288 541.5-298.289q10.5-10.29 10.5-25.5Q552-339 541.675-349.5 531.35-360 516.088-360h-71.825Q429-360 418.5-349.711q-10.5 10.29-10.5 25.5Q408-309 418.325-298.5 428.65-288 443.912-288Zm191.877-120Q651-408 661.5-418.325 672-428.65 672-443.912v-71.825Q672-531 661.711-541.5q-10.29-10.5-25.5-10.5Q621-552 610.5-541.675 600-531.35 600-516.088v71.825Q600-429 610.289-418.5q10.29 10.5 25.5 10.5Zm-312 0Q339-408 349.5-418.325 360-428.65 360-443.912v-71.825Q360-531 349.711-541.5q-10.29-10.5-25.5-10.5Q309-552 298.5-541.675 288-531.35 288-516.088v71.825Q288-429 298.289-418.5q10.29 10.5 25.5 10.5ZM480-480Z"/></svg>

<svg xmlns="http://www.w3.org/2000/svg" height="20" viewBox="0 -960 960 960" width="20"><path d="M336-192q-120 0-204-84T48-480q0-120 84-204t204-84h288q120 0 204 84t84 204q0 120-84 204t-204 84H336Zm0-72h288q90 0 153-63t63-153q0-90-63-153t-153-63H336q-90 0-153 63t-63 153q0 90 63 153t153 63Zm144.21-144Q510-408 531-429.21t21-51Q552-510 530.79-531t-51-21Q450-552 429-530.79t-21 51Q408-450 429.21-429t51 21Zm-36.3-192h71.83q15.26 0 25.76-10.29 10.5-10.29 10.5-25.5t-10.32-25.71Q531.35-672 516.09-672h-71.83q-15.26 0-25.76 10.29-10.5 10.29-10.5 25.5t10.32 25.71q10.33 10.5 25.59 10.5Zm0 312h71.83q15.26 0 25.76-10.29 10.5-10.29 10.5-25.5t-10.32-25.71Q531.35-360 516.09-360h-71.83q-15.26 0-25.76 10.29-10.5 10.29-10.5 25.5t10.32 25.71q10.33 10.5 25.59 10.5Zm191.88-120q15.21 0 25.71-10.32 10.5-10.33 10.5-25.59v-71.83q0-15.26-10.29-25.76-10.29-10.5-25.5-10.5t-25.71 10.32Q600-531.35 600-516.09v71.83q0 15.26 10.29 25.76 10.29 10.5 25.5 10.5Zm-312 0q15.21 0 25.71-10.32 10.5-10.33 10.5-25.59v-71.83q0-15.26-10.29-25.76-10.29-10.5-25.5-10.5t-25.71 10.32Q288-531.35 288-516.09v71.83q0 15.26 10.29 25.76 10.29 10.5 25.5 10.5ZM480-480Z"/></svg>
